Origami/22x22/apps/mat.svg

<svg width="22" height="22" version="1" xmlns="http://www.w3.org/2000/svg">
 <rect x="9" y="6.5" width="4" height="15" rx="1.5" ry="1.5" style="opacity:.2"/>
 <rect x="9" y="6" width="4" height="15" rx="1.5" ry="1.5" style="fill:#b83229"/>
 <path d="m9.8491083 11.491012c-2.3141082-0.044878-4.2530111-0.084504-4.8273657-0.161486-0.4211955-0.056456-0.6280431-0.111494-0.8613341-0.229185-0.385309-0.194379-0.6249394-0.46543-0.7978731-0.90249-0.1581114-0.399584-0.2224905-0.716955-0.2815733-1.3881001-0.0666757-0.7573919-0.071887-0.8945069-0.0788109-2.0745818-0.0081555-1.3877709 0.0082605-1.8425318 0.0995981-2.7636598 0.0478927-0.4829014 0.1177046-0.8038305 0.2488744-1.1441549 0.1194582-0.3099268 0.2285208-0.4809715 0.4268664-0.6694615 0.2492839-0.2368969 0.5230587-0.3809063 0.8686751-0.4569286 0.5158727-0.1134733 3.847178-0.2009627 6.3553758-0.2009627 2.508198 0 5.839444 0.087489 6.355316 0.2009627 0.373076 0.082063 0.646888 0.233642 0.914044 0.5060002 0.209095 0.2131659 0.31679 0.4068618 0.444949 0.8002981 0.132055 0.4053902 0.1827 0.764158 0.257736 1.8258307 0.03563 0.5041729 0.03562 2.8250477 0 3.3289722-0.04169 0.5895129-0.09286 1.1144885-0.12692 1.3023345-0.08758 0.482945-0.259595 0.935114-0.45353 1.192203-0.133058 0.176382-0.395719 0.386545-0.61536 0.492365-0.222406 0.107151-0.434303 0.160274-0.775905 0.194527-1.058533 0.106139-5.290529 0.183636-7.1527487 0.147517z" style="opacity:.2"/>
 <path d="m9.8491083 10.991014c-2.3141082-0.044878-4.2530111-0.084504-4.8273657-0.161486-0.4211955-0.056456-0.6280431-0.111494-0.8613341-0.229185-0.385309-0.194379-0.6249394-0.46543-0.7978731-0.90249-0.1581114-0.399584-0.2224905-0.7169549-0.2815733-1.3881013-0.0666757-0.7573919-0.071887-0.8945069-0.0788109-2.0745818-0.0081555-1.3877709 0.0082605-1.8425318 0.0995981-2.7636598 0.0478927-0.4829014 0.1177046-0.8038305 0.2488744-1.1441549 0.1194582-0.3099268 0.2285208-0.4809715 0.4268664-0.6694615 0.2492839-0.2368969 0.5230587-0.3809063 0.8686751-0.4569286 0.5158727-0.1134733 3.847178-0.2009627 6.3553758-0.2009627 2.508198 0 5.839444 0.087489 6.355316 0.2009627 0.373076 0.082063 0.646888 0.233642 0.914044 0.5060002 0.209095 0.2131659 0.31679 0.4068618 0.444949 0.8002981 0.132055 0.4053902 0.1827 0.764158 0.257736 1.8258307 0.03563 0.5041729 0.03562 2.8250477 0 3.3289722-0.04169 0.5895129-0.09286 1.1144893-0.12692 1.3023358-0.08758 0.4829449-0.259595 0.9351139-0.45353 1.1922029-0.133058 0.176382-0.395719 0.386545-0.61536 0.492365-0.222406 0.107151-0.434303 0.160274-0.775905 0.194527-1.058533 0.106139-5.290529 0.183636-7.1527487 0.147517z" style="fill:#d54c41"/>
 <path d="m15.492078 3.4919042a0.50005 0.50005 0 0 0 -0.07422 0.00781h-0.917968a0.50005 0.50005 0 1 0 0 1h0.5v3.5a0.50005 0.50005 0 1 0 1 0v-3.5h0.5a0.50005 0.50005 0 1 0 0 -1h-0.908203a0.50005 0.50005 0 0 0 -0.09961 -0.00781zm-7.0058596 0.00586a0.50005 0.50005 0 0 0 -0.3867187 0.2011713l-1.0996094 1.4667968-1.0996094-1.4667968a0.50005 0.50005 0 0 0 -0.3867187 -0.1992188 0.50005 0.50005 0 0 0 -0.5136719 0.5v4a0.50005 0.50005 0 1 0 1 0v-2.4980469l0.5996094 0.7988281a0.50005 0.50005 0 0 0 0.8007812 0l0.5996094-0.7988281v2.4980469a0.50005 0.50005 0 1 0 1 0v-4a0.50005 0.50005 0 0 0 -0.5136719 -0.5019525zm3.5195306 0.00195a0.50005 0.50005 0 0 0 -0.474609 0.3242213l-1.5 4a0.50005 0.50005 0 1 0 0.935547 0.3515624l0.253906-0.6757812h1.556641l0.253906 0.6757812a0.50005 0.50005 0 1 0 0.935547 -0.3515624l-1.5-4a0.50005 0.50005 0 0 0 -0.460938 -0.3242188zm-0.0059 1.9238306 0.402344 1.0761719h-0.806641z" style="opacity:.2"/>
 <path d="m5.4998909 7.4998788v-3.9999993l1.4999998 2.0001205 1.4999999-2.0001205v3.9999993" style="fill:none;stroke-linecap:round;stroke-linejoin:round;stroke:#fefefe"/>
 <path d="m10.499423 7.4998788 1.5-3.9999993 1.5 3.9999993" style="fill:none;stroke-linecap:round;stroke-linejoin:round;stroke:#fefefe"/>
 <path d="m15.49994 7.4998788v-3.9999993" style="fill:none;stroke-linecap:round;stroke-linejoin:round;stroke:#fefefe"/>
 <path d="m14.500011 3.4998795h1.999879" style="fill:none;stroke-linecap:round;stroke-linejoin:round;stroke:#fefefe"/>
 <path d="m10.999423 6.5h2" style="fill:none;stroke:#fefefe"/>
 <path d="m11.001843 1c-2.5081977 0-5.8395956 0.0876986-6.3554683 0.2011719-0.3456164 0.0760223-0.6198567 0.2201343-0.8691406 0.4570312-0.1983456 0.18849-0.3063231 0.3599951-0.4257813 0.6699219-0.1311698 0.3403244-0.2021073 0.6596767-0.25 1.1425781-0.091338 0.921128-0.1077649 1.375901-0.099609 2.7636719 5.422e-4 0.092398 0.0014 0.1070916 0.00195 0.1875-0.00244-1.092658 0.015487-1.6225013 0.097656-2.4511719 0.047893-0.4829014 0.1188302-0.8022537 0.25-1.1425781 0.1194612-0.3099268 0.2274387-0.4814319 0.4257843-0.6699219 0.2492839-0.2368969 0.5235242-0.3810089 0.8691406-0.4570312 0.5158727-0.1134733 3.8472706-0.2011719 6.3554683-0.2011719 2.508198 0 5.839597 0.087698 6.355469 0.2011719 0.373076 0.082063 0.646906 0.2335012 0.914062 0.5058593 0.209095 0.2131659 0.317154 0.407345 0.445313 0.8007813 0.132055 0.4053902 0.182776 0.7644992 0.257812 1.8261719 0.01514 0.2142141 0.01921 0.8226363 0.02148 1.4140625 0.0031-0.8005292-9.93e-4 -1.6241037-0.02148-1.9140625-0.075036-1.0616727-0.125757-1.4207817-0.257812-1.8261719-0.128159-0.3934363-0.236218-0.5876154-0.445313-0.8007813-0.267156-0.2723581-0.540986-0.4237963-0.914062-0.5058593-0.515872-0.1134737-3.847271-0.2011719-6.355469-0.2011719z" style="fill:#ffffff;opacity:.2"/>
</svg>

<svg xmlns="http://www.w3.org/2000/svg" width="22" height="22" version="1">
 <rect style="opacity:0.2" width="4" height="15" x="9" y="6.5" rx="1.5" ry="1.5"/>
 <rect style="fill:#b83229" width="4" height="15" x="9" y="6" rx="1.5" ry="1.5"/>
 <path style="opacity:0.2" d="M 9.8491083,11.491012 C 7.5350001,11.446134 5.5960972,11.406508 5.0217426,11.329526 4.6005471,11.27307 4.3936995,11.218032 4.1604085,11.100341 3.7750995,10.905962 3.5354691,10.634911 3.3625354,10.197851 3.204424,9.798267 3.1400449,9.480896 3.0809621,8.8097509 3.0142864,8.052359 3.0090751,7.915244 3.0021512,6.7351691 2.9939957,5.3473982 3.0104117,4.8926373 3.1017493,3.9715093 3.149642,3.4886079 3.2194539,3.1676788 3.3506237,2.8273544 3.4700819,2.5174276 3.5791445,2.3463829 3.7774901,2.1578929 4.026774,1.920996 4.3005488,1.7769866 4.6461652,1.7009643 5.1620379,1.587491 8.4933432,1.5000016 11.001541,1.5000016 c 2.508198,0 5.839444,0.087489 6.355316,0.2009627 0.373076,0.082063 0.646888,0.233642 0.914044,0.5060002 0.209095,0.2131659 0.31679,0.4068618 0.444949,0.8002981 0.132055,0.4053902 0.1827,0.764158 0.257736,1.8258307 0.03563,0.5041729 0.03562,2.8250477 0,3.3289722 -0.04169,0.5895129 -0.09286,1.1144885 -0.12692,1.3023345 -0.08758,0.482945 -0.259595,0.935114 -0.45353,1.192203 -0.133058,0.176382 -0.395719,0.386545 -0.61536,0.492365 -0.222406,0.107151 -0.434303,0.160274 -0.775905,0.194527 -1.058533,0.106139 -5.290529,0.183636 -7.1527487,0.147517 z"/>
 <path style="fill:#d54c41" d="M 9.8491083,10.991014 C 7.5350001,10.946136 5.5960972,10.90651 5.0217426,10.829528 4.6005471,10.773072 4.3936995,10.718034 4.1604085,10.600343 3.7750995,10.405964 3.5354691,10.134913 3.3625354,9.697853 3.204424,9.298269 3.1400449,8.9808981 3.0809621,8.3097517 3.0142864,7.5523598 3.0090751,7.4152448 3.0021512,6.2351699 2.9939957,4.847399 3.0104117,4.3926381 3.1017493,3.4715101 3.149642,2.9886087 3.2194539,2.6676796 3.3506237,2.3273552 3.4700819,2.0174284 3.5791445,1.8463837 3.7774901,1.6578937 4.026774,1.4209968 4.3005488,1.2769874 4.6461652,1.2009651 5.1620379,1.0874918 8.4933432,1.0000024 11.001541,1.0000024 c 2.508198,0 5.839444,0.087489 6.355316,0.2009627 0.373076,0.082063 0.646888,0.233642 0.914044,0.5060002 0.209095,0.2131659 0.31679,0.4068618 0.444949,0.8002981 0.132055,0.4053902 0.1827,0.764158 0.257736,1.8258307 0.03563,0.5041729 0.03562,2.8250477 0,3.3289722 -0.04169,0.5895129 -0.09286,1.1144893 -0.12692,1.3023358 -0.08758,0.4829449 -0.259595,0.9351139 -0.45353,1.1922029 -0.133058,0.176382 -0.395719,0.386545 -0.61536,0.492365 -0.222406,0.107151 -0.434303,0.160274 -0.775905,0.194527 -1.058533,0.106139 -5.290529,0.183636 -7.1527487,0.147517 z"/>
 <path style="opacity:0.2" d="m 15.492078,3.4919042 a 0.50005,0.50005 0 0 0 -0.07422,0.00781 H 14.49989 a 0.50005,0.50005 0 1 0 0,1 h 0.5 v 3.5 a 0.50005,0.50005 0 1 0 1,0 v -3.5 h 0.5 a 0.50005,0.50005 0 1 0 0,-1 h -0.908203 a 0.50005,0.50005 0 0 0 -0.09961,-0.00781 z m -7.0058596,0.00586 A 0.50005,0.50005 0 0 0 8.0994997,3.6989355 L 6.9998903,5.1657323 5.9002809,3.6989355 a 0.50005,0.50005 0 0 0 -0.3867187,-0.1992188 0.50005,0.50005 0 0 0 -0.5136719,0.5 v 4 a 0.50005,0.50005 0 1 0 1,0 V 5.5016698 l 0.5996094,0.7988281 a 0.50005,0.50005 0 0 0 0.8007812,0 L 7.9998903,5.5016698 v 2.4980469 a 0.50005,0.50005 0 1 0 1,0 v -4 A 0.50005,0.50005 0 0 0 8.4862184,3.4977642 Z m 3.5195306,0.00195 A 0.50005,0.50005 0 0 0 11.53114,3.8239355 l -1.5,4 a 0.50005,0.50005 0 1 0 0.935547,0.3515624 l 0.253906,-0.6757812 h 1.556641 l 0.253906,0.6757812 a 0.50005,0.50005 0 1 0 0.935547,-0.3515624 l -1.5,-4 A 0.50005,0.50005 0 0 0 12.005749,3.4997167 Z m -0.0059,1.9238306 0.402344,1.0761719 h -0.806641 z"/>
 <path style="fill:none;stroke:#fefefe;stroke-linecap:round;stroke-linejoin:round" d="M 5.4998909,7.4998788 V 3.4998795 L 6.9998907,5.5 8.4998906,3.4998795 v 3.9999993"/>
 <path style="fill:none;stroke:#fefefe;stroke-linecap:round;stroke-linejoin:round" d="m 10.499423,7.4998788 1.5,-3.9999993 1.5,3.9999993"/>
 <path style="fill:none;stroke:#fefefe;stroke-linecap:round;stroke-linejoin:round" d="m 15.49994,7.4998788 v -3.9999993 0"/>
 <path style="fill:none;stroke:#fefefe;stroke-linecap:round;stroke-linejoin:round" d="M 14.500011,3.4998795 H 16.49989"/>
 <path style="fill:none;stroke:#fefefe" d="m 10.999423,6.5 h 2"/>
 <path style="opacity:0.2;fill:#ffffff" d="M 11.001843,1 C 8.4936453,1 5.1622474,1.0876986 4.6463747,1.2011719 4.3007583,1.2771942 4.026518,1.4213062 3.7772341,1.6582031 3.5788885,1.8466931 3.470911,2.0181982 3.3514528,2.328125 c -0.1311698,0.3403244 -0.2021073,0.6596767 -0.25,1.1425781 -0.091338,0.921128 -0.1077649,1.375901 -0.099609,2.7636719 5.422e-4,0.092398 0.0014,0.1070916 0.00195,0.1875 C 3.0013538,5.329217 3.0192808,4.7993737 3.1014498,3.9707031 3.1493428,3.4878017 3.22028,3.1684494 3.3514498,2.828125 3.470911,2.5181982 3.5788885,2.3466931 3.7772341,2.1582031 4.026518,1.9213062 4.3007583,1.7771942 4.6463747,1.7011719 5.1622474,1.5876986 8.4936453,1.5 11.001843,1.5 c 2.508198,0 5.839597,0.087698 6.355469,0.2011719 0.373076,0.082063 0.646906,0.2335012 0.914062,0.5058593 0.209095,0.2131659 0.317154,0.407345 0.445313,0.8007813 0.132055,0.4053902 0.182776,0.7644992 0.257812,1.8261719 0.01514,0.2142141 0.01921,0.8226363 0.02148,1.4140625 0.0031,-0.8005292 -9.93e-4,-1.6241037 -0.02148,-1.9140625 C 18.899463,3.2723117 18.848742,2.9132027 18.716687,2.5078125 18.588528,2.1143762 18.480469,1.9201971 18.271374,1.7070312 18.004218,1.4346731 17.730388,1.2832349 17.357312,1.2011719 16.84144,1.0876982 13.510041,1 11.001843,1 Z"/>
</svg>
